X: 17841
T: Horizonto
R: jig
M: 6/8
K: Dminor
ABG AFG|EFD ECD|A,2A, DEF|E2E CDE|
F3 FGF|E2E CDE|F2E2C2|A,=B,^C D3:|
B,2B, DEF|B,2B, DEF|A,2A, DEF|A,2A, DEF|
B,2B, DEF|B,2B, DEF|ABG AFG|EFD EDC|
B,2B, DEF|B,2B, DEF|A,2A, DEF|A,2A, DEF|
B,2B, DEF|B,2B, DEF|=B,2B, DEF|=B,2B, DEF|
B2A2GF|E3 EFG|A2G2FE|D3 DEF|
G2F2ED|^C3 CDE|F2G2^G2|A3 AGA|
B2c2B2|E3 EFG|A2B2A2|D3 DEF|
G2F2ED|^C3 CDE|F2E2C2|A,=B,^C D3||

